X: 391	% 112
T: Miss Mc Clouds Reel
S: Viola Ruth "Pioneer Western Folk Tunes" 1948 p.39 #1
R: reel
Z: 2019 John Chambers <jc:trillian.mit.edu>
M: 2/4
L: 1/16
K: G
V: 1 name="112"
(3(DEF) |\
G3g edeg | B2BA BcBA | G3g edeg | A2AG AcBA | G3g edeg |
B2BA B2d2 | e3f edef | gedB G2 :: (3(DEF) | GABc dBGA | B2BA BcBA |
GABc dBGB | A2AG AcBA | GABc dBGA | B2BA B2d2 | (e3f) edef | gedB G2 :|
